src/assets/images/icons/click-icon.svg

<svg xmlns="http://www.w3.org/2000/svg" width="20" height="20" fill="none"><path stroke="#0A192F" stroke-linecap="round" stroke-linejoin="round" stroke-width="2" d="M1 10h3m6-9v3M5.8 5.8 3.6 3.6m10.6 2.2 2.2-2.2M5.8 14.2l-2.2 2.2M10 10l9 3-4 2-2 4-3-9Z"/></svg>

<svg width="20" height="20" viewBox="0 0 20 20" fill="none" xmlns="http://www.w3.org/2000/svg">
<path d="M1 10H4M10 1V4M5.8 5.8L3.6 3.6M14.2 5.8L16.4 3.6M5.8 14.2L3.6 16.4M10 10L19 13L15 15L13 19L10 10Z" stroke="#0A192F" stroke-width="2" stroke-linecap="round" stroke-linejoin="round"/>
</svg>
